X:1
T:Night Visiting Song
M:4/4
L:1/8
K:G
 DGA| B3 dc B|A-F D3 D| GAB-A GA/2-B/2| cB A3 B| c B/2A/2 G2| AG|E/2-D/2 D E2 DD|\
 D/2 D3/2 F3/2- E/2 D3/2 D/2|
M:4/4
 GG G2- G||
